ultrasound/ui/components/snx.svg

<svg width="250" height="32" viewBox="0 0 250 32" fill="none" xmlns="http://www.w3.org/2000/svg">
<path d="M10.1926 7.9901C9.89768 7.65016 9.53453 7.47979 9.1024 7.47979H0.264826C0.18633 7.47979 0.122105 7.45476 0.073739 7.40469C0.0245797 7.35544 0 7.29973 0 7.23997V1.23981C0 1.18006 0.0245797 1.12515 0.073739 1.07509C0.122105 1.02503 0.18633 1 0.264826 1H9.60351C11.96 1 13.993 1.97055 15.7016 3.91005L17.9701 6.69979L13.5513 12.1299L10.1926 7.9901ZM26.5135 3.88017C28.2222 1.96006 30.2647 1 32.641 1H41.9504C42.0288 1 42.0875 1.02019 42.1272 1.05975C42.166 1.10012 42.1858 1.15988 42.1858 1.23981V7.23997C42.1858 7.29973 42.166 7.35544 42.1272 7.40469C42.0875 7.45476 42.0288 7.47979 41.9504 7.47979H33.1128C32.6806 7.47979 32.3175 7.65016 32.0225 7.9901L25.5121 15.9701L32.0519 24.0099C32.3468 24.3305 32.6997 24.4903 33.1128 24.4903H41.9504C42.0288 24.4903 42.0875 24.5154 42.1272 24.5654C42.166 24.6155 42.1858 24.6809 42.1858 24.76V30.7602C42.1858 30.8199 42.166 30.8757 42.1272 30.9249C42.0875 30.975 42.0288 31 41.9504 31H32.641C30.2647 31 28.2317 30.0303 26.5429 28.09L21.1227 21.4301L15.7016 28.09C13.993 30.0303 11.9505 31 9.57418 31H0.264826C0.18633 31 0.126863 30.975 0.0880111 30.9249C0.0483664 30.8748 0.029337 30.8103 0.029337 30.7295V24.7293C0.029337 24.6696 0.0483664 24.6147 0.0880111 24.5646C0.126863 24.5146 0.18633 24.4895 0.264826 24.4895H9.1024C9.51471 24.4895 9.87785 24.32 10.1926 23.9792L16.5849 16.1195L26.5135 3.88017Z" fill="#00D1FF"/>
<path d="M219.763 14.4054H216.817C215.957 14.4054 215.5 14.8995 215.5 15.6681V15.906C215.5 16.6746 216.049 17.1687 216.817 17.1687H220.367C221.813 17.1687 222.948 18.2667 222.948 19.7124V20.3163C222.948 21.762 221.813 22.86 220.367 22.86H216.561C215.079 22.86 213.871 21.7254 213.871 20.2248V19.9869H215.5V20.0601C215.5 20.847 216.103 21.4143 216.909 21.4143H220.001C220.843 21.4143 221.319 20.9202 221.319 20.1516V19.9137C221.319 19.1451 220.77 18.651 220.001 18.651H216.451C215.005 18.651 213.871 17.5713 213.871 16.1073V15.4851C213.871 14.0394 215.005 12.9414 216.451 12.9414H220.111C221.575 12.9414 222.801 14.0943 222.801 15.5766V15.8145H221.154V15.7596C221.154 14.9544 220.55 14.4054 219.763 14.4054Z" fill="white"/>
<path d="M208.886 14.4054H205.756C204.951 14.4054 204.347 15.0093 204.347 15.8145V17.0955H210.185V15.723C210.185 14.9544 209.654 14.4054 208.886 14.4054ZM209.142 22.86H205.39C203.89 22.86 202.7 21.6705 202.7 20.1882V15.6315C202.7 14.1309 203.89 12.9414 205.39 12.9414H209.233C210.697 12.9414 211.832 14.0943 211.832 15.54V18.4497H204.347V20.0052C204.347 20.7921 204.951 21.396 205.756 21.396H208.794C209.581 21.396 210.185 20.7921 210.185 20.0052V19.7673H211.832V20.2614C211.832 21.762 210.606 22.86 209.142 22.86Z" fill="white"/>
<path d="M193.873 14.9727V22.86H192.207V15.3753C192.207 14.808 191.896 14.4237 191.274 14.4237H187.98C187.669 14.4237 187.413 14.6433 187.413 14.9727V22.86H185.747V12.9414H187.413V14.0394L188.694 12.9414H191.658C192.537 12.9414 193.305 13.4355 193.635 14.1492L195.025 12.9414H197.661C199.106 12.9414 200.351 14.1309 200.351 15.6315V22.86H198.685V15.8328C198.685 15.0276 198.063 14.4237 197.276 14.4237H194.44C194.129 14.4237 193.873 14.6433 193.873 14.9727Z" fill="white"/>
<path d="M180.785 12.9414C182.249 12.9414 183.475 14.1309 183.475 15.6315V20.1882C183.475 21.6522 182.286 22.86 180.785 22.86H176.832C175.368 22.86 174.142 21.6705 174.142 20.1882V15.6315C174.142 14.1675 175.332 12.9414 176.832 12.9414H180.785ZM181.81 19.9869V15.8328C181.81 15.0276 181.188 14.4237 180.401 14.4237H177.217C176.43 14.4237 175.807 15.0276 175.807 15.8328V19.9869C175.807 20.7738 176.43 21.3777 177.217 21.3777H180.401C181.188 21.3777 181.81 20.7738 181.81 19.9869Z" fill="white"/>
<path d="M164.377 14.9726V22.8599H162.712V9.39111H164.377V14.0027L165.658 12.9413H169.19C170.654 12.9413 171.88 14.1308 171.88 15.6314V22.8599H170.215V15.8327C170.215 15.0275 169.611 14.4236 168.805 14.4236H164.944C164.633 14.4236 164.377 14.6432 164.377 14.9726Z" fill="white"/>
<path d="M160.827 20.9568V22.86H158.96V20.9568H160.827Z" fill="white"/>
<path d="M155.429 12.9413V9.39111H157.094V22.8599H155.429V21.7619L154.111 22.8599H150.597C149.115 22.8599 147.907 21.6338 147.907 20.1881V15.6314C147.907 14.1308 149.152 12.9413 150.597 12.9413H155.429ZM150.982 21.3776H154.861C155.172 21.3776 155.429 21.1763 155.429 20.8286V14.4236H150.982C150.195 14.4236 149.573 15.0275 149.573 15.8327V19.9868C149.573 20.7737 150.195 21.3776 150.982 21.3776Z" fill="white"/>
<path d="M138.142 14.9727V22.86H136.477V12.9414H138.142V14.0028L139.423 12.9414H142.955C144.419 12.9414 145.645 14.1309 145.645 15.6315V22.86H143.98V15.8328C143.98 15.0276 143.376 14.4237 142.571 14.4237H138.709C138.398 14.4237 138.142 14.6433 138.142 14.9727Z" fill="white"/>
<path d="M127.862 21.3777H131.687C131.998 21.3777 132.254 21.1764 132.254 20.8287V12.9414H133.919V22.86H132.254V21.762L130.973 22.86H127.478C126.014 22.86 124.788 21.6705 124.788 20.1882V12.9414H126.453V19.9869C126.453 20.7738 127.057 21.3777 127.862 21.3777Z" fill="white"/>
<path d="M119.88 12.9414C121.344 12.9414 122.57 14.1309 122.57 15.6315V20.1882C122.57 21.6522 121.381 22.86 119.88 22.86H115.928C114.464 22.86 113.237 21.6705 113.237 20.1882V15.6315C113.237 14.1675 114.427 12.9414 115.928 12.9414H119.88ZM120.905 19.9869V15.8328C120.905 15.0276 120.283 14.4237 119.496 14.4237H116.312C115.525 14.4237 114.903 15.0276 114.903 15.8328V19.9869C114.903 20.7738 115.525 21.3777 116.312 21.3777H119.496C120.283 21.3777 120.905 20.7738 120.905 19.9869Z" fill="white"/>
<path d="M108.016 14.4054H105.069C104.209 14.4054 103.752 14.8995 103.752 15.6681V15.906C103.752 16.6746 104.301 17.1687 105.069 17.1687H108.619C110.065 17.1687 111.2 18.2667 111.2 19.7124V20.3163C111.2 21.762 110.065 22.86 108.619 22.86H104.813C103.331 22.86 102.123 21.7254 102.123 20.2248V19.9869H103.752V20.0601C103.752 20.847 104.356 21.4143 105.161 21.4143H108.253C109.095 21.4143 109.571 20.9202 109.571 20.1516V19.9137C109.571 19.1451 109.022 18.651 108.253 18.651H104.703C103.258 18.651 102.123 17.5713 102.123 16.1073V15.4851C102.123 14.0394 103.258 12.9414 104.703 12.9414H108.363C109.827 12.9414 111.053 14.0943 111.053 15.5766V15.8145H109.406V15.7596C109.406 14.9544 108.802 14.4054 108.016 14.4054Z" fill="white"/>
<path d="M93.83 21.3777H97.5632C97.8743 21.3777 98.1305 21.1764 98.1305 20.8287V14.4237H93.83C93.0431 14.4237 92.4209 15.0276 92.4209 15.8328V19.9869C92.4209 20.7738 93.0431 21.3777 93.83 21.3777ZM96.8129 22.86H93.4457C91.9634 22.86 90.7556 21.6339 90.7556 20.1882V15.6315C90.7556 14.1309 92 12.9414 93.4457 12.9414H99.7958V22.86H98.1305V21.762L96.8129 22.86Z" fill="white"/>
<path d="M85.0649 14.9727V22.86H83.3996V12.9414H85.0649V13.9845L86.3459 12.9414H89.768V14.4237H85.6322C85.3211 14.4237 85.0649 14.6433 85.0649 14.9727Z" fill="white"/>
<path d="M81.4718 21.3777V22.86H79.4405C77.9765 22.86 76.8602 21.7803 76.8602 20.2797V14.4237H75.14V12.9414H76.8602V10.7637H78.5255V12.9414H81.4901V14.4237H78.5255V20.0784C78.5255 20.8653 79.0379 21.3777 79.8248 21.3777H81.4718Z" fill="white"/>
<path d="M71.7485 9.39111H73.4138V22.8599H71.7485V9.39111Z" fill="white"/>
<path d="M66.2105 22.8598H60.6839C59.1101 22.8598 57.7742 21.5239 57.7742 19.9501V10.0498H59.5493V19.7854C59.5493 20.6272 60.2264 21.3043 61.0682 21.3043H65.8079C66.6497 21.3043 67.3451 20.6089 67.3451 19.7671V10.0498H69.1385V19.9501C69.1385 21.5239 67.7843 22.8598 66.2105 22.8598Z" fill="white"/>
</svg>

<svg width="250" height="32" fill="none" viewBox="0 0 250 32" xmlns="http://www.w3.org/2000/svg">
  <path fill="#00D1FF" d="M10.193 7.99q-.442-.51-1.09-.51H.264a.25.25 0 0 1-.191-.075A.23.23 0 0 1 0 7.24v-6q0-.09.074-.165A.25.25 0 0 1 .264 1h9.34q3.534 0 6.098 2.91L17.97 6.7l-4.419 5.43zm16.32-4.11Q29.078 1 32.642 1h9.31q.117 0 .176.06t.059.18v6q0 .09-.059.165-.06.075-.177.075h-8.837q-.648 0-1.09.51l-6.51 7.98 6.539 8.04q.442.48 1.06.48h8.838q.118 0 .177.075a.3.3 0 0 1 .059.195v6q0 .09-.059.165-.06.075-.177.075h-9.309q-3.565 0-6.098-2.91l-5.42-6.66-5.421 6.66Q13.139 31 9.574 31H.264q-.117 0-.176-.075a.3.3 0 0 1-.059-.195v-6q0-.09.059-.165t.177-.076h8.837q.62 0 1.09-.51l6.393-7.86z"/>
  <path fill="#fff" d="M219.763 14.405h-2.946c-.86 0-1.317.495-1.317 1.263v.238c0 .769.549 1.263 1.317 1.263h3.55c1.446 0 2.581 1.098 2.581 2.543v.604c0 1.446-1.135 2.544-2.581 2.544h-3.806c-1.482 0-2.69-1.135-2.69-2.635v-.238h1.629v.073c0 .787.603 1.354 1.409 1.354h3.092c.842 0 1.318-.494 1.318-1.262v-.238c0-.769-.549-1.263-1.318-1.263h-3.55c-1.446 0-2.58-1.08-2.58-2.544v-.622c0-1.446 1.134-2.544 2.58-2.544h3.66c1.464 0 2.69 1.153 2.69 2.636v.238h-1.647v-.055c0-.806-.604-1.355-1.391-1.355m-10.877 0h-3.13c-.805 0-1.409.604-1.409 1.41v1.28h5.838v-1.372c0-.769-.531-1.318-1.299-1.318m.256 8.455h-3.752c-1.5 0-2.69-1.19-2.69-2.672v-4.556c0-1.501 1.19-2.69 2.69-2.69h3.843a2.574 2.574 0 0 1 2.599 2.598v2.91h-7.485v1.555c0 .787.604 1.391 1.409 1.391h3.038c.787 0 1.391-.604 1.391-1.39v-.239h1.647v.494c0 1.501-1.226 2.599-2.69 2.599m-15.269-7.887v7.887h-1.666v-7.485c0-.567-.311-.951-.933-.951h-3.294c-.311 0-.567.22-.567.549v7.887h-1.666v-9.919h1.666v1.098l1.281-1.098h2.964c.879 0 1.647.494 1.977 1.208l1.39-1.208h2.636c1.445 0 2.69 1.19 2.69 2.69v7.229h-1.666v-7.027c0-.805-.622-1.41-1.409-1.41h-2.836c-.311 0-.567.22-.567.55m-13.088-2.032c1.464 0 2.69 1.19 2.69 2.69v4.557a2.68 2.68 0 0 1-2.69 2.672h-3.953c-1.464 0-2.69-1.19-2.69-2.672v-4.556c0-1.464 1.19-2.69 2.69-2.69zm1.025 7.046v-4.154c0-.805-.622-1.41-1.409-1.41h-3.184c-.787 0-1.41.605-1.41 1.41v4.154c0 .787.623 1.39 1.41 1.39h3.184c.787 0 1.409-.603 1.409-1.39m-17.433-5.014v7.887h-1.665V9.39h1.665v4.612l1.281-1.062h3.532c1.464 0 2.69 1.19 2.69 2.69v7.229h-1.665v-7.027c0-.806-.604-1.41-1.41-1.41h-3.861c-.311 0-.567.22-.567.55m-3.55 5.985v1.903h-1.867v-1.903zm-5.398-8.016v-3.55h1.665V22.86h-1.665v-1.098l-1.318 1.098h-3.514c-1.482 0-2.69-1.226-2.69-2.672v-4.557c0-1.5 1.245-2.69 2.69-2.69zm-4.447 8.437h3.879c.311 0 .568-.202.568-.55v-6.404h-4.447c-.787 0-1.409.604-1.409 1.409v4.154c0 .787.622 1.39 1.409 1.39m-12.84-6.404v7.887h-1.665v-9.919h1.665v1.062l1.281-1.062h3.532c1.464 0 2.69 1.19 2.69 2.69v7.229h-1.665v-7.027c0-.805-.604-1.41-1.409-1.41h-3.862c-.311 0-.567.22-.567.55m-10.28 6.405h3.825c.311 0 .567-.202.567-.55v-7.887h1.665v9.919h-1.665v-1.098l-1.281 1.098h-3.495c-1.464 0-2.69-1.19-2.69-2.672v-7.247h1.665v7.046c0 .787.604 1.39 1.409 1.39m-7.982-8.436c1.464 0 2.69 1.19 2.69 2.69v4.557a2.68 2.68 0 0 1-2.69 2.672h-3.952c-1.464 0-2.691-1.19-2.691-2.672v-4.556c0-1.464 1.19-2.69 2.691-2.69zm1.025 7.046v-4.154c0-.805-.622-1.41-1.409-1.41h-3.184c-.787 0-1.409.605-1.409 1.41v4.154c0 .787.622 1.39 1.409 1.39h3.184c.787 0 1.409-.603 1.409-1.39m-12.889-5.582h-2.947c-.86 0-1.317.495-1.317 1.263v.238c0 .769.549 1.263 1.317 1.263h3.55c1.446 0 2.581 1.098 2.581 2.543v.604c0 1.446-1.135 2.544-2.581 2.544h-3.806c-1.482 0-2.69-1.135-2.69-2.635v-.238h1.629v.073c0 .787.604 1.354 1.409 1.354h3.092c.842 0 1.318-.494 1.318-1.262v-.238c0-.769-.549-1.263-1.318-1.263h-3.55c-1.445 0-2.58-1.08-2.58-2.544v-.622c0-1.446 1.135-2.544 2.58-2.544h3.66c1.464 0 2.69 1.153 2.69 2.636v.238h-1.647v-.055c0-.806-.604-1.355-1.39-1.355M93.83 21.378h3.733c.311 0 .567-.202.567-.55v-6.404h-4.3c-.787 0-1.41.604-1.41 1.409v4.154c0 .787.623 1.39 1.41 1.39m2.983 1.482h-3.367c-1.483 0-2.69-1.226-2.69-2.672v-4.556c0-1.501 1.244-2.69 2.69-2.69h6.35v9.918H98.13v-1.098zm-11.748-7.886v7.887H83.4v-9.919h1.665v1.043l1.28-1.043h3.423v1.483h-4.136c-.31 0-.567.22-.567.549m-3.593 6.405v1.482H79.44c-1.465 0-2.58-1.08-2.58-2.58v-5.856h-1.72V12.94h1.72v-2.177h1.665v2.177h2.965v1.483h-2.965v5.654c0 .787.513 1.3 1.3 1.3zM71.749 9.391h1.665V22.86h-1.665zM66.21 22.86h-5.526c-1.574 0-2.91-1.336-2.91-2.91v-9.9h1.775v9.735c0 .842.677 1.52 1.52 1.52h4.739c.842 0 1.537-.696 1.537-1.538V10.05h1.793v9.9c0 1.574-1.354 2.91-2.928 2.91"/>
</svg>
